X:1
T:City of New Orleans
M:2/4
L:1/8
K:C
 GG GG| GG GF| F E2 z| z4| EE EC| AA AG| G2 z2| z4| GG GG| GG GF| F E2 z|\
 z2 z E/2E/2| EC z2| G/2G/2 GG B,| C2 z2| z2 z E/2E/2| EE EE| EE E3/2 E/2|\
 EE EE| EE E3/2 E/2| GG GG| GG GG| A4| z4| EE EE| EE E3/2 E/2| E E2 E/2E/2|\
 EE E G/2G/2| G2 G D/2E/2| FF F/2E/2 D| C2 z2| z4| cc cB| BB BA| G C2 z|\
 z2 z E| EE EC| AA AG| G4| z G2 F| E3/2 E/2 E3/2 E/2| GG GA| E C2 z|\
 z2 z C/2C/2| _BB AA| G G/2G/2 G/2F/2 _E| C4| z4|
